X:1
T:C Major Oliver Holden, 1795
T:Isaac Watts, 1709 (Hymn 84, Book 1) 88. 88. (L. M.)
T:Jehovah speaks! No copyright. Transcribed from The Abington Collection, 1813.
%%score [ 1 2 3 4 ]
L:1/8
M:2/4
K:C
V:1 treble nm="Treble" snm="Tr."
V:2 treble nm="Counter" snm="C."
V:3 treble-8 nm="Tenor" snm="T."
V:4 bass nm="Bass" snm="B."
V:1
"^Andante" z | z4 | z2 z B | c2 B2 | c2 z c | d2 c2 | B2 z2 | z4 | z2 z c | cB cd | e3 d | cc cc | %12
w: ||Je-|ho- vah|speaks! *||||||||
 BA GB | cB cc | dc Bc | B2 A2 | !fermata!G2 z2 | z4 | z4 | z4 | z2 z c | d2 d2 | B2 B2 | c2 d2 | %24
w: ||||||||||||
 B2 z2 | z4 | z4 | z4 | z2 z c | dc Bc | de (3fed | c2 B2 | c4 | z4 | z4 | z2 z c | c2 c2 | c3 z | %38
w: |||||||||||And|I the|first,|
 z4 | z4 | z4 | z2 z G | c2 c2 | c2 z B | c2 c2 | c2 z e | ed dc | cB cd | ed dc | (c2 B) z | %50
w: ||||||||||||
 e2 ee | f3 e | d2 c2 | B2 z2 | z4 | z4 | z4 | z2 z c | dc Bc | d2 c2 | B3 c | ed cd | c2 A2 | %63
w: There's none be-|side pre-|tends to|show|||||||* There's|none be- side pre-|tends to|
 G3 d | cB c f/d/ | c2 B2 | c4 |] %67
w: show *||||
V:2
 z | z4 | z4 |!<(! z4!<)! | z2!f! z G | G2 G2 | G2 z2 | z4 | z2 z!f! E | G2 G2 | G3 G | GG GG | %12
w: ||||Je-|ho- vah|speaks!||Let|Is- rael|hear; Let|all the earth re-|
 G z2 G | G3 G | G z2 C | D2 C2 | !fermata!B,2 z2 | z4 | z4 | z4 | z2 z!f! G | G2 G2 | G2 G2 | %23
w: joice, re-|joice, re-|joice, re-|joice and|fear.||||While|God's e-|ter- nal|
 A2 A2 | G2 z2 | z4 | z4 | z4 | z2!f! z G | G2 G2 | G2 A2 | G2 F2 | E4 | z4 | z4 | z2!p! z E | %36
w: Son pro-|claims||||His|sove- reign|hon- ors|and His|names.||||
 E2 E2 | E3 z | z4 | z4 | z4 | z2 z!f! G | C2 C2 | C2 z G | G2 G2 | G2 z C | G2 G2 | G2 G2 | %48
w: |||||The|Sav- ior|God, and|God the|just, The|Sav- ior|God, and|
 G2 G2 | G3 z | G2 GG | A3 G | F2 E2 | D2 z2 | z4 | z4 | z4 | z2 z G | GG GG | G2 G2 | G2 z2 | z4 | %62
w: God the|just;||||||||Such|jus- tice and sal-|va- tion|too.||
 z4 | z2 z!f! G | GG GA | G2 F2 | E4 |] %67
w: |Such|jus- tice and sal-|va- tion|too.|
V:3
!mp! c | c2 B2 | c2 z d |!<(! e2 d2!<)! | e2!f! z e | f2 e2 | d2 z!p! d | ed cB | c3!f! c | ed cB | %10
w: Je-|ho- vah|speaks! Je-|ho- vah|speaks! *||* Let|Is- * rael *|hear, *||
 c3 d | ee ee | dc Bd | ed ce | fe dc | g2 ^f2 | !fermata!g2 z!p! c | c2 c2 | B2 B2 | c2 d2 | %20
w: ||||||* While|God's e-|ter- nal|Son pro-|
 e2!f! z e | f2 f2 | d2 d2 | e2 ^f2 | g2 z!p! f | fe ed | dc cd | ef fe | (e2 d)!f!e | fe de | %30
w: claims, *||||* His|sove- * reign *|hon- * ors *|and * His *|names, * *||
 fg (3agf | e2 d2 | c4 | z2!p! c2 | c2 c2 | c4 | z4 | z2 z d | ed dc | cB cd | ed dc | (c2 B)!f!G | %42
w: |||I|am the|last,||The|Sav- * ior *|God, * and *|God * the *|just, * *|
 c2 c2 | c2 z d | e2 e2 | e2 z g | gf fe | ed ef | gf fe | (e2 d) z | z4 | z4 | z4 | z2 z e | %54
w: |||||||||||There's|
 f2 e2 | d3 e | f2 e2 | d3 e | fe de | f2 e2 | d3 e | gf ef | e2 ^f2 | g3!f! f | ed c a/f/ | %65
w: none be-|side pre-|tends to|show *|||* There's|none be- side pre-|tends to|show *||
 e2 d2 | c4 |] %67
w: ||
V:4
 C, | E,2 G,2 | C2 z G, | C2 G,2 | C2 z C | B,2 C2 | G,2 z G, | G,2 G,2 | C,3 C, | G,2 G,2 | %10
 C,3 G, | CC CC | G, z2 G, | C3 C, | G, z2 C | D2 D,2 | !fermata!G,2 z C, | C,2 C,2 | G,2 G,2 | %19
 C,2 G,2 | C2 z C, | G,2 G,2 | G,2 G,2 | C2 D2 | G,2 z G, | G,2 G,2 | G,2 G,2 | G,2 G,2 | G,3 G, | %29
 G,2 G,2 | G,2 F,2 | G,2 G,2 | C,4 | z2 C,2 | C,2 C,2 | C,4 | z4 | z2 z G, | G,2 G,2 | G,2 G,2 | %40
 G,2 G,2 | G,3 G, | C2 C2 | C2 z G, | C2 C2 | C2 z C, | G,2 G,2 | G,2 G,2 | G,2 G,2 | G,3 z | z4 | %51
 z4 | z4 | z2 z C, | G,2 C2 | G,3 C | B,2 C2 | G,3 G, | G,G, G,G, | G,2 G,2 | G,2 z2 | z4 | z4 | %63
 z2 z G, | CG, E,F, | G,2 G,2 | C,4 |] %67

